icons/folder-event-open.svg

<svg xmlns="http://www.w3.org/2000/svg" viewBox="0 0 32 32">
  <path d="M28.96692,12H9.44152a2,2,0,0,0-1.89737,1.36754L4,24V10H28a2,2,0,0,0-2-2H15.1241a2,2,0,0,1-1.28038-.46357L12.5563,6.46357A2,2,0,0,0,11.27592,6H4A2,2,0,0,0,2,8V24a2,2,0,0,0,2,2H26l4.80523-11.21213A2,2,0,0,0,28.96692,12Z" style="fill: #fbc02d"/>
  <g>
    <path d="M24,30a2,2,0,0,0,2-2H22A2,2,0,0,0,24,30Z" style="fill: #fff9c4;fill-rule: evenodd"/>
    <path d="M30,22V17a5.00112,5.00112,0,0,0-4-4.89923V12a2,2,0,0,0-4,0v.10077A5.00112,5.00112,0,0,0,18,17v5l-2,2v2H32V24Z" style="fill: #fff9c4;fill-rule: evenodd"/>
  </g>
</svg>

<svg xmlns="http://www.w3.org/2000/svg" viewBox="0 0 32 32"><path fill="#fbc02d" d="M28.967 12H9.442a2 2 0 0 0-1.898 1.368L4 24V10h24a2 2 0 0 0-2-2H15.124a2 2 0 0 1-1.28-.464l-1.288-1.072A2 2 0 0 0 11.276 6H4a2 2 0 0 0-2 2v16a2 2 0 0 0 2 2h22l4.805-11.212A2 2 0 0 0 28.967 12Z"/><path fill="#fff9c4" fill-rule="evenodd" d="M24 30a2 2 0 0 0 2-2h-4a2 2 0 0 0 2 2Zm6-8v-5a5.001 5.001 0 0 0-4-4.9V12a2 2 0 0 0-4 0v.1a5.001 5.001 0 0 0-4 4.9v5l-2 2v2h16v-2Z"/></svg>
